X: 210
T:48 bar Reels 1 - Maiden Lane*
T: Jules Verret's
K: Gdor
g2fe d2dc | BABc d2 d2 | c2 (3ccc B2 B2 | AG^FG Ad (3ddd |
g2fe d2dc | BABc d2 d2 | c2 (3ccc =B2 B2 | AG^FA G2 d2 :|
K:D
fgfe d2 ef | gagf e2 Ac | efed cdeg | fgfe d2 de |
fgfe d2 ef | gagf e2 Ac | efed cdag |1 fdec d2 Ad :|2 fdec d2 ag ||
fagf egfe | dcde f2 A2 | dcde fedf | edcB A2 ag |
fagf egfe | dcde f2 A2 | B2 (3BBB A2 A2 |1 F2 E2 D2 ag :|2 F2 E2 D2 z2 ||
T:Maiden Lane
L:1/8
K:Dmaj
"D"A3 G FE D2| "D"d2 "A"c2 "D"d2 A2 | "D"d2 "A"c2 "D"d2 AG| "G"F2 "A"E2 "D"D4|
"D"A3 G FE D2| "D"d2 "A"c2 "D"d2 A2 |"D"d2 "A"c2 "D"d2 AG| "G"F2 "A"E2 "D"D2:|
|: "Em"EFGA B2 E2| G2 F2 E2 B2| "B"B2 B2 B2 AG |"C"FE"D"FG "Em"E4|
"Em"EFGA B2 E2 | G2 F2 E2 B2 | "B"B2 B2 B2 AG|"C"FE"D"FG "Em"E4:|
|: "D"A2 FG A2 FG|AGFE F2 D2 | "G"A2 FG ABAG | "A"F2 E2 D4| "D"A2 FG A2 FG| AGFE F2 D| "G"A2 FG ABAG |"A"F2 E2 "D"D4:|
%%newpage

